X: 1
T:Knocknagow
R:jig
S:Krassen
M:6/8
L:1/8
K:AMix
E|EAB ~c3|EGF GAB|EAB ~c3|~d3 ecA|!
EAB cBc|EGF GAB|eAG edB|cAA A2:|!
|:B|Aab ~a3|ede ~g3|Aab aec|def gdB|!
Gab ~a3|ede ~g3|efe dcB|cAA A2:|!
|:c|ece dcB|cAF ECE|AGA ~c3|~d3 Bcd|!
dfe dcB|cAF ECE|Ace aed|cAA A2:|!
|:^c/d/|eaf ~g3|a2f e^cA|dfa e^cA|dBB B^cd|!
e^cA fdB|~a3 e^cA|df^g aed|^cAA A2:|!
